cs_client/src/assets/icons/cherrytree/folder.svg

<?xml version="1.0" encoding="UTF-8" standalone="no"?>
<!--part of the rodentia icon theme by sixsixfive released under CC0 (https://creativecommons.org/publicdomain/zero/1.0/) on openclipart-->
<svg xmlns="http://www.w3.org/2000/svg" xmlns:xlink="http://www.w3.org/1999/xlink" viewBox="0 0 48 48">
 <defs id="0">
  <linearGradient id="3">
   <stop id="O" stop-color="#2e3436"/>
   <stop id="P" offset="1" stop-color="#2e3436" stop-opacity="0"/>
  </linearGradient>
  <linearGradient id="4">
   <stop id="Q" stop-color="#fff" stop-opacity="0.4"/>
   <stop id="R" offset="1" stop-color="#fff" stop-opacity="0"/>
  </linearGradient>
  <linearGradient id="5">
   <stop id="S" stop-color="#8f5902"/>
   <stop id="T" offset="1" stop-color="#683f00"/>
  </linearGradient>
  <linearGradient id="6">
   <stop id="U" stop-color="#fff"/>
   <stop id="V" offset="1" stop-color="#fff" stop-opacity="0"/>
  </linearGradient>
  <linearGradient id="7">
   <stop id="W" stop-color="#fff" stop-opacity="0.8"/>
   <stop id="X" offset="1" stop-color="#fff" stop-opacity="0"/>
  </linearGradient>
  <linearGradient id="8">
   <stop id="Y" stop-color="#e9b96e"/>
   <stop id="Z" offset="1" stop-color="#c17d11"/>
  </linearGradient>
  <linearGradient id="9">
   <stop id="a" stop-color="#2e3436"/>
   <stop id="b" offset="1" stop-color="#555753"/>
  </linearGradient>
  <filter color-interpolation-filters="sRGB" id="A">
   <feGaussianBlur stdDeviation="0.755" id="c"/>
  </filter>
  <radialGradient cx="35.488" cy="26.2" r="23" id="B" xlink:href="#9" gradientUnits="userSpaceOnUse" gradientTransform="matrix(1.0434444,-1.4643692,1.4020098,0.9990096,-62.776231,34.470805)"/>
  <linearGradient y1="1.781" x2="0" y2="41.75" id="C" xlink:href="#4" gradientUnits="userSpaceOnUse"/>
  <linearGradient y1="10.144" x2="0" y2="42.775" id="D" xlink:href="#8" gradientUnits="userSpaceOnUse"/>
  <linearGradient y1="10.144" x2="0" y2="42.775" id="E" xlink:href="#5" gradientUnits="userSpaceOnUse"/>
  <linearGradient y1="11.188" x2="0" y2="41.75" id="F" xlink:href="#7" gradientUnits="userSpaceOnUse"/>
  <linearGradient x1="7.935" y1="-28.25" x2="20.05" y2="36.1" id="G" xlink:href="#6" gradientUnits="userSpaceOnUse"/>
  <radialGradient cx="24.919" cy="48.2" r="25.941" id="H" xlink:href="#3" gradientUnits="userSpaceOnUse" gradientTransform="matrix(1,0,0,0.1062992,0,43.080183)"/>
 </defs>
 <path d="m 50.860289,48.204258 a 25.94079,2.7574856 0 1 1 -51.8815807,0 25.94079,2.7574856 0 1 1 51.8815807,0 z" transform="matrix(0.9652959,0,0,0.8148148,-0.05468968,4.2286171)" id="1" fill="url(#H)"/>
 <g transform="matrix(0.9574469,0,0,0.9574469,1.0212744,3.1660267)" id="2">
  <path d="m 1.5,1.2452202 0,41.0294108 45,0 0,-34.5135739 -18.834842,0 -5.497737,-6.5158369 -20.667421,0 z" id="I" fill="url(#B)" stroke="#2e3436" stroke-linejoin="round" stroke-linecap="square"/>
  <path d="m 2.53125,2.28125 0,38.96875 42.9375,0 0,-32.46875 -17.8125,0 A 1.0266953,1.0266953 0 0 1 26.875,8.40625 l -5.1875,-6.125 -19.15625,0 z" id="J" opacity="0.8" fill="none" stroke="url(#C)" stroke-linejoin="round" stroke-linecap="square"/>
  <path d="m 18.65625,11.1875 -2.875,6.34375 a 0.54138149,0.54138149 0 0 1 -0.5,0.3125 l -13.75,0 0.5,23.90625 43.9375,0 0.5,-30.5625 -27.8125,0 z" transform="translate(0,-1.7)" id="K" filter="url(#A)"/>
  <path d="m 18.310273,10.643608 -3.037735,6.654088 -14.272535,0 0.4999972,24.976935 44.9999998,0 0.499997,-31.631023 -28.689724,0 z" id="L" fill="url(#D)" stroke="url(#E)" stroke-linejoin="round" stroke-linecap="square"/>
  <path d="m 18.96875,11.6875 -2.75,6.0625 a 1.0266953,1.0266953 0 0 1 -0.9375,0.59375 l -13.21875,0 L 2.5,41.25 l 43,0 0.4375,-29.5625 -26.96875,0 z" id="M" opacity="0.8" fill="none" stroke="url(#F)" stroke-linejoin="round" stroke-linecap="square"/>
  <path d="m 18.65625,11.15625 -2.90625,6.375 c -0.08919,0.176066 -0.271425,0.285406 -0.46875,0.28125 l -13.78125,0 0.3125,15.34375 c 12.189878,-5.184653 30.416986,-10.313955 44.53125,-12.75 l 0.15625,-9.25 -27.84375,0 z" id="N" opacity="0.8" fill="url(#G)"/>
 </g>
</svg>

<svg xmlns="http://www.w3.org/2000/svg" xmlns:xlink="http://www.w3.org/1999/xlink" viewBox="0 0 48 48"><defs><linearGradient id="g"><stop stop-color="#2e3436"/><stop offset="1" stop-color="#2e3436" stop-opacity="0"/></linearGradient><linearGradient id="b"><stop stop-color="#fff" stop-opacity=".4"/><stop offset="1" stop-color="#fff" stop-opacity="0"/></linearGradient><linearGradient id="d"><stop stop-color="#8f5902"/><stop offset="1" stop-color="#683f00"/></linearGradient><linearGradient id="f"><stop stop-color="#fff"/><stop offset="1" stop-color="#fff" stop-opacity="0"/></linearGradient><linearGradient id="e"><stop stop-color="#fff" stop-opacity=".8"/><stop offset="1" stop-color="#fff" stop-opacity="0"/></linearGradient><linearGradient id="c"><stop stop-color="#e9b96e"/><stop offset="1" stop-color="#c17d11"/></linearGradient><linearGradient id="a"><stop stop-color="#2e3436"/><stop offset="1" stop-color="#555753"/></linearGradient><linearGradient y1="1.781" x2="0" y2="41.75" id="j" xlink:href="#b" gradientUnits="userSpaceOnUse"/><linearGradient y1="10.144" x2="0" y2="42.775" id="l" xlink:href="#c" gradientUnits="userSpaceOnUse"/><linearGradient y1="10.144" x2="0" y2="42.775" id="m" xlink:href="#d" gradientUnits="userSpaceOnUse"/><linearGradient y1="11.188" x2="0" y2="41.75" id="n" xlink:href="#e" gradientUnits="userSpaceOnUse"/><linearGradient x1="7.935" y1="-28.25" x2="20.05" y2="36.1" id="o" xlink:href="#f" gradientUnits="userSpaceOnUse"/><radialGradient cx="35.488" cy="26.2" r="23" id="i" xlink:href="#a" gradientUnits="userSpaceOnUse" gradientTransform="matrix(1.04344 -1.46437 1.40201 .99901 -62.776 34.47)"/><radialGradient cx="24.919" cy="48.2" r="25.941" id="h" xlink:href="#g" gradientUnits="userSpaceOnUse" gradientTransform="matrix(1 0 0 .1063 0 43.08)"/><filter color-interpolation-filters="sRGB" id="k"><feGaussianBlur stdDeviation=".755"/></filter></defs><path d="M50.86 48.204a25.94 2.757 0 11-51.881 0 25.94 2.757 0 1151.881 0z" transform="matrix(.9653 0 0 .81481 -.055 4.229)" fill="url(#h)"/><path d="M1.5 1.245v41.03h45V7.76H27.665l-5.498-6.516H1.5z" fill="url(#i)" stroke="#2e3436" stroke-linejoin="round" stroke-linecap="square" transform="matrix(.95745 0 0 .95745 1.021 3.166)"/><path d="M2.531 2.281V41.25H45.47V8.781H27.656a1.027 1.027 0 01-.781-.375l-5.188-6.125H2.532z" opacity=".8" fill="none" stroke="url(#j)" stroke-linejoin="round" stroke-linecap="square" transform="matrix(.95745 0 0 .95745 1.021 3.166)"/><path d="M18.656 11.188l-2.875 6.343a.541.541 0 01-.5.313H1.531l.5 23.906H45.97l.5-30.563H18.656z" transform="matrix(.95745 0 0 .95745 1.021 1.538)" filter="url(#k)"/><path d="M18.31 10.644l-3.037 6.654H1l.5 24.977h45l.5-31.631H18.31z" fill="url(#l)" stroke="url(#m)" stroke-linejoin="round" stroke-linecap="square" transform="matrix(.95745 0 0 .95745 1.021 3.166)"/><path d="M18.969 11.688l-2.75 6.062a1.027 1.027 0 01-.938.594H2.062L2.5 41.25h43l.438-29.563h-26.97z" opacity=".8" fill="none" stroke="url(#n)" stroke-linejoin="round" stroke-linecap="square" transform="matrix(.95745 0 0 .95745 1.021 3.166)"/><path d="M18.656 11.156l-2.906 6.375a.513.513 0 01-.469.282H1.5l.313 15.343c12.19-5.184 30.416-10.314 44.53-12.75l.157-9.25H18.656z" opacity=".8" fill="url(#o)" transform="matrix(.95745 0 0 .95745 1.021 3.166)"/></svg>
